paymentMethods/alipay.svg

<svg width="128" height="64" viewBox="0 0 128 64" fill="none" xmlns="http://www.w3.org/2000/svg">
<rect width="128" height="64" rx="6" fill="white"/>
<path d="M31.316 18H12.444C11.8578 18.0026 11.2779 18.1207 10.7373 18.3474C10.1967 18.5742 9.70603 18.9052 9.29336 19.3216C8.8807 19.738 8.55409 20.2316 8.33218 20.7742C8.11027 21.3168 7.99741 21.8978 8.00005 22.484V41.516C7.99741 42.1022 8.11027 42.6832 8.33218 43.2258C8.55409 43.7684 8.8807 44.262 9.29336 44.6784C9.70603 45.0948 10.1967 45.4258 10.7373 45.6526C11.2779 45.8793 11.8578 45.9974 12.444 46H31.316C31.9023 45.9974 32.4822 45.8793 33.0228 45.6526C33.5634 45.4258 34.0541 45.0948 34.4667 44.6784C34.8794 44.262 35.206 43.7684 35.4279 43.2258C35.6498 42.6832 35.7627 42.1022 35.76 41.516V41.516V22.484C35.7627 21.8978 35.6498 21.3168 35.4279 20.7742C35.206 20.2316 34.8794 19.738 34.4667 19.3216C34.0541 18.9052 33.5634 18.5742 33.0228 18.3474C32.4822 18.1207 31.9023 18.0026 31.316 18V18Z" fill="#1677FF"/>
<path d="M30.8561 35.6C29.7441 35.228 28.2561 34.652 26.5961 34.048C27.6402 32.1979 28.4198 30.2106 28.9121 28.144H23.4401V26.144H30.1441V25.028H23.4401V21.712H20.7201C20.6581 21.7109 20.5965 21.7221 20.5388 21.7448C20.4811 21.7676 20.4285 21.8015 20.3839 21.8446C20.3394 21.8877 20.3037 21.9391 20.279 21.996C20.2543 22.0528 20.2411 22.114 20.2401 22.176V25.028H13.4401V26.136H20.2241V28.136H14.6241V29.244H25.4841C25.0962 30.5757 24.5721 31.8638 23.9201 33.088C20.3961 31.916 16.6361 30.964 14.2761 31.548C13.0948 31.784 12.0223 32.3975 11.2201 33.296C8.59606 36.516 10.4801 41.404 16.0201 41.404C19.2961 41.404 22.4521 39.564 24.8961 36.528C28.5441 38.296 35.7641 41.328 35.7641 41.328V37.004C35.7641 37.004 34.8561 36.932 30.8561 35.6ZM15.5201 39.532C11.2001 39.532 9.92006 36.1 12.0601 34.224C12.7721 33.588 14.0601 33.28 14.7681 33.212C17.3321 32.956 19.7081 33.94 22.5121 35.32C20.5201 37.912 18.0121 39.532 15.5201 39.532Z" fill="white"/>
<path d="M68.2841 22.1C68.2841 23.548 69.3401 24.524 70.8161 24.524C72.2921 24.524 73.3521 23.548 73.3521 22.1C73.3521 20.652 72.2961 19.676 70.8161 19.676C70.1806 19.6411 69.5573 19.86 69.0833 20.2845C68.6092 20.7091 68.3232 21.3046 68.2881 21.94C68.2881 21.992 68.2881 22.048 68.2881 22.1" fill="#1677FF"/>
<path d="M65.608 20.288H61.208V40.624H65.608V20.288Z" fill="black"/>
<path d="M53.492 20.984H47.584L40.98 40.624H45.048L46.164 36.8H53.156L54.216 40.644H59.416L53.492 20.984ZM47.092 33.576L49.708 24.524H49.82L52.32 33.576H47.092Z" fill="black"/>
<path d="M73.0161 25.692H68.6161V40.624H73.0161V25.692Z" fill="black"/>
<path d="M119.016 25.72L119.044 25.692H114.892L112.272 34.776H112.132L109.124 25.692H104.192L110.128 40.68L107.648 45.248V45.36H111.52L119.016 25.72Z" fill="black"/>
<path d="M83.968 25.388C82.368 25.388 81.1 26 79.676 27.168V25.692H75.276V45.36H79.676V40.484C80.5115 40.7116 81.3741 40.8246 82.24 40.82C86.168 40.82 89.708 37.924 89.708 32.768C89.708 28.144 87.144 25.388 83.968 25.388M81.168 38.06C80.6583 38.0649 80.1509 37.9907 79.664 37.84V29.76C80.4106 29.157 81.3365 28.8193 82.296 28.8C83.94 28.8 85.248 30.112 85.248 32.896C85.248 36.46 83.328 38.048 81.18 38.048" fill="black"/>
<path d="M103.328 36.892V30.652C103.328 27.252 101.328 25.388 97.788 25.388C95.528 25.388 93.968 25.788 91.128 26.64L91.928 30.068C94.508 28.896 95.648 28.4 96.848 28.4C98.296 28.4 98.936 29.428 98.936 31.016V31.128C93.888 32.076 92.32 32.604 91.352 33.6C90.628 34.324 90.32 35.356 90.32 36.552C90.2844 37.6821 90.6987 38.7801 91.4719 39.605C92.245 40.43 93.314 40.9144 94.444 40.952H94.64C96.2 40.952 97.44 40.364 99.152 39.084L99.456 40.644H103.856L103.328 36.892ZM98.928 37.004C97.76 37.644 97.088 37.896 96.308 37.896C95.252 37.896 94.584 37.2 94.584 36.084C94.5681 35.8718 94.5953 35.6585 94.6641 35.4571C94.7328 35.2556 94.8416 35.0702 94.984 34.912C95.52 34.4 96.56 34 98.928 33.436V37.004Z" fill="black"/>
</svg>

<svg xmlns="http://www.w3.org/2000/svg" width="128" height="64" fill="none"><rect width="128" height="64" fill="#fff" rx="6"/><path fill="#1677FF" d="M31.316 18H12.444A4.464 4.464 0 0 0 8 22.484v19.032A4.464 4.464 0 0 0 12.444 46h18.872a4.465 4.465 0 0 0 4.444-4.484V22.484A4.463 4.463 0 0 0 31.316 18Z"/><path fill="#fff" d="M30.856 35.6c-1.112-.372-2.6-.948-4.26-1.552a22.73 22.73 0 0 0 2.316-5.904H23.44v-2h6.704v-1.116H23.44v-3.316h-2.72a.472.472 0 0 0-.48.464v2.852h-6.8v1.108h6.784v2h-5.6v1.108h10.86a20.187 20.187 0 0 1-1.564 3.844c-3.524-1.172-7.284-2.124-9.644-1.54a5.556 5.556 0 0 0-3.056 1.748c-2.624 3.22-.74 8.108 4.8 8.108 3.276 0 6.432-1.84 8.876-4.876 3.648 1.768 10.868 4.8 10.868 4.8v-4.324s-.908-.072-4.908-1.404ZM15.52 39.532c-4.32 0-5.6-3.432-3.46-5.308.712-.636 2-.944 2.708-1.012 2.564-.256 4.94.728 7.744 2.108-1.992 2.592-4.5 4.212-6.992 4.212Z"/><path fill="#1677FF" d="M68.284 22.1c0 1.448 1.056 2.424 2.532 2.424s2.536-.976 2.536-2.424-1.056-2.424-2.536-2.424a2.4 2.4 0 0 0-2.528 2.264v.16"/><path fill="#000" d="M65.608 20.288h-4.4v20.336h4.4V20.288ZM53.492 20.984h-5.908l-6.604 19.64h4.068l1.116-3.824h6.992l1.06 3.844h5.2l-5.924-19.66Zm-6.4 12.592 2.616-9.052h.112l2.5 9.052h-5.228ZM73.016 25.692h-4.4v14.932h4.4V25.692ZM119.016 25.72l.028-.028h-4.152l-2.62 9.084h-.14l-3.008-9.084h-4.932l5.936 14.988-2.48 4.568v.112h3.872l7.496-19.64ZM83.968 25.388c-1.6 0-2.868.612-4.292 1.78v-1.476h-4.4V45.36h4.4v-4.876c.835.228 1.698.34 2.564.336 3.928 0 7.468-2.896 7.468-8.052 0-4.624-2.564-7.38-5.74-7.38m-2.8 12.672a4.927 4.927 0 0 1-1.504-.22v-8.08a4.327 4.327 0 0 1 2.632-.96c1.644 0 2.952 1.312 2.952 4.096 0 3.564-1.92 5.152-4.068 5.152M103.328 36.892v-6.24c0-3.4-2-5.264-5.54-5.264-2.26 0-3.82.4-6.66 1.252l.8 3.428c2.58-1.172 3.72-1.668 4.92-1.668 1.448 0 2.088 1.028 2.088 2.616v.112c-5.048.948-6.616 1.476-7.584 2.472-.724.724-1.032 1.756-1.032 2.952a4.268 4.268 0 0 0 4.124 4.4h.196c1.56 0 2.8-.588 4.512-1.868l.304 1.56h4.4l-.528-3.752Zm-4.4.112c-1.168.64-1.84.892-2.62.892-1.056 0-1.724-.696-1.724-1.812a1.575 1.575 0 0 1 .4-1.172c.536-.512 1.576-.912 3.944-1.476v3.568Z"/></svg>
